!!!!SEGMENT: pl-kk--kk-i-40--005-003_flori-georg--missa-sanctus.krn
!!!cenid: 16xx:1295
!!!COM: Flori, Georg
!!!COM-rismid: pe30007781
!!!CDT: ~1558-~1594
!!!CNT: Dutch
!!!OPR: Missa
!!!OTL: Sanctus
!!!OMV: 003
!!!PDT:
!!!AGN: Sacred; Mass
!!!SMS-siglum: PL-Kk
!!!SMS-shelfmark: Kk.I.40
!!!SMS-shelfwork: 005-003 M
!!!SMS-variant:
!!!SMS-altvar:
!!!NIFC-rismid: 1001154491
!!!URL-scan: http://repozytorium.nifc.pl/skany/pl-kk-nut--i-40
!!!ONB-nifc: UWAGA: części Mszy: 1. Kyrie, 2. Et in terra, 3. Sanctus, 4. Agnus Dei. Skan 0008-0009
!!!key:
**kern	**text
*Iempty	*
*I"Baſso Ripieno.	*
*I'B rip	*
*clefC4	*
*k[b-]	*
*g:	*
*M2/1	*
*met(c|)	*
=1-	=1-
!LO:N:vis=00	!
!LO:TX:t=P:global:problem=oddech/cezura na różnej wysokości	!
!LO:TX:t=P:problem=kreska pseudotaktowa	!
00r	.
=2-	=2-
.	.
=3-	=3-
2.G/	San-
!LO:TX:t=P:problem=kreska pseudotaktowa	!
4A/	.
4B-\	.
4c\	.
*2\right	*
!LO:TX:t=P:problem=kreska pseudotaktowa	!
2d\	-ct(us)
=4-	=4-
4G,/	.
*	*ij
2G/	San-
!LO:TX:t=P:problem=kreska pseudotaktowa	!
4F/	.
4D/	.
4E/	.
!LO:TX:t=P:problem=kreska pseudotaktowa	!
2F/	.
=5-	=5-
2G,/	-ct(us)
*	*Xij
4G/	San-
!LO:TX:t=P:problem=kreska pseudotaktowa	!
4A/	.
4B-\	.
4c\	.
!LO:TX:t=P:problem=kreska pseudotaktowa	!
2d\	.
=6-	=6-
2c\	.
2G/	.
!LO:TX:t=P:problem=kreska pseudotaktowa	!
1A	-ct(us)
=7-	=7-
2D,/	.
2.d\	Do-
4d\	-mi-
2D/	-n(us)
=8-	=8-
1G	De-
!LO:TX:t=P:problem=kreska pseudotaktowa	!
1A,	-us
=9-	=9-
0r	.
=10-	=10-
!LO:TX:t=P:problem=kreska pseudotaktowa	!
1r	.
2r	.
!LO:TX:t=P:problem=kreska pseudotaktowa	!
2G/	Ple-
=11-	=11-
4F/	-ni
4F/	s(un)t
2E/	cae-
2D,/	-li
!LO:TX:t=P:problem=kreska pseudotaktowa	!
*	*ij
2A\	Ple-
=12-	=12-
4B-\	-ni
4G/	s(un)t
2d\	cae-
2G,/	-li
*	*Xij
2D/	et
=13-	=13-
2.G/	ter-
!LO:TX:t=P:problem=kreska pseudotaktowa	!
4F/	.
!LO:LB:g=original	!
1E-X	.
=14-	=14-
2BB-,/	-ra
2.B-\	glo-
4B-\	-ri-
!LO:TX:t=P:problem=kreska pseudotaktowa	!
2F/	-a
=15-	=15-
4D/	tu-
4Eny/	.
4F/	.
!LO:TX:t=P:problem=kreska pseudotaktowa	!
4D/	.
1A	.
=16-	=16-
0D;>	-a
=17||	=17||
*M2/1	*
*met(c|)	*
!LO:TX:t=P:problem=kreska pseudotaktowa	!
0r	.
=18-	=18-
2G/	O-
4G/	-san-
!LO:TX:t=P:problem=kreska pseudotaktowa	!
4A/	-na
4B-\	in
4G/	ex-
!LO:TX:t=P:problem=kreska pseudotaktowa	!
2c\	-cel-
=19-	=19-
4B-,\	-ſis
4c\	in
!LO:TX:t=P:problem=kreska pseudotaktowa	!
2F/	ex-
1B-	-cel-
=20-	=20-
!LO:TX:t=P:problem=kreska pseudotaktowa	!
1F,	-ſis
2B-\	O-
4B-\	-san-
!LO:TX:t=P:problem=kreska pseudotaktowa	!
4c\	-na
=21-	=21-
4d\	in
4B-\	ex-
2e-X\	-cel-
!LO:TX:t=P:problem=kreska pseudotaktowa	!
1d,	-ſis
=22-	=22-
*	*ij
1G,	in
4D/	ex-
4E/	.
4F/	.
4D/	.
=23-	=23-
1G	-cel-
!LO:TX:t=P:problem=kreska pseudotaktowa	!
1F,	-ſis
*	*Xij
=24-	=24-
2r	.
2B-\	O-
4G/	-san-
4A/	-na
4B-/	in
!LO:TX:t=P:problem=kreska pseudotaktowa	!
4G/	ex-
!LO:LB:g=original	!
=25-	=25-
2d\	-cel-
4G,/	-ſis
!LO:TX:t=P:problem=kreska pseudotaktowa	!
*	*ij
4G/	O
2B-\	san-
!LO:TX:t=P:problem=kreska pseudotaktowa	!
2F/	-ma
=26-	=26-
2.B-\	in
4c\	ex-
2d\	-cel-
2D/	.
=27-	=27-
0G;>	-ſis
*	*Xij
=28||	=28||
*M2/1	*
*met(c|)	*
0r	.
=29-	=29-
!LO:TX:t=P:problem=kreska pseudotaktowa	!
1r	.
1D	Be-
=30-	=30-
2F/	-ne-
!LO:TX:t=P:problem=kreska pseudotaktowa	!
2A/	-dic-
2G,/	-tus
2G/	qui
=31-	=31-
1F	ve-
!LO:TX:t=P:problem=kreska pseudotaktowa	!
1G,	-nit
=32-	=32-
!LO:TX:t=P:problem=kreska pseudotaktowa	!
1r	.
*	*ij
1G	Be-
=33-	=33-
2B-\	-ne-
2d\	-dic-
2c\	-tus
!LO:TX:t=P:problem=kreska pseudotaktowa	!
2d\	qui
=34-	=34-
*lig	*
1G	ve-
1A	.
*Xlig	*
=35-	=35-
2D,/	-nit
*	*Xij
!LO:TX:t=P:problem=kreska pseudotaktowa	!
2d\	in
4c\	N(o-
4A\	-mi)-
!LO:TX:t=P:problem=kreska pseudotaktowa	!
2B-\	-ne
!LO:LB:g=original	!
=36-	=36-
2c\	Do-
!LO:TX:t=P:problem=kreska pseudotaktowa	!
2A\	-mi-
2G,/	-ni
!LO:TX:t=P:problem=kreska pseudotaktowa	!
2G/	in
=37-	=37-
4D/	N(o-
4F/	-mi)-
2C/	-ne
2.G/	Do-
4G/	-mi-
=38-	=38-
!LO:TX:t=P:problem=kreska pseudotaktowa	!
1D	-ni
0r	.
=39-	=39-
.	.
2r	.
2G/	in
=40-	=40-
4F/	N(o-
4D/	-mi)-
!LO:TX:t=P:problem=kreska pseudotaktowa	!
2F/	-ne
2G/	Do-
2C/	-mi-
=41-	=41-
2D,/	-ni
!LO:TX:t=P:problem=kreska pseudotaktowa	!
*	*ij
2D/	in
4A/	N(o-
4F/	-mi)-
(<4G/	-ne
!LO:TX:t=P:problem=kreska pseudotaktowa	!
4A/)	.
=42-	=42-
1B-	Do-
2.A\	.
4A\	-mi-
=43-	=43-
2D,/	-ni
*	*Xij
2D/	in
2.G/	N(o-
4G/	-mi)-
=44-	=44-
!LO:TX:t=P:problem=kreska pseudotaktowa	!
1F	-ne
2B-\	Do-
2c\	.
=45-	=45-
1.d	.
2D/	-mi-
=46-	=46-
!LO:TX:Bi:a:t=Osanna\nDa Capo.	!
0G;>	-ni.
==	==
*-	*-
!!!RDF**kern: > = above
!!!RDF**kern: < = below
!!!EED: Antoni Szymański
!!!EST: 2021-07-31
!!!AIN: 1 empty
!!!ENC: Berenika Jozajtis
!!!END: 2021-07-04
